X: 85
T:Codiad yr Haul
T:The Rising of the Sun
M:6/8
L:1/8
Q:120
S:Unknown whistle player, Newport c. 1985
R:Jig
A:Wales
N:From a tape recording by unknown player.
Z:brian_martin12345@yahoo.com
K:D
d3c3|dAFD3|d>ed cBc|dAF D2f|gbg faf|ege def|gfe gfe|a2Ad3:||!
d2de3|f>ed fga|d3e3|dafe3|d2de2e|f2g/e/ fga|d3e2e|dafe3|!
f2g/f/e2f/e/|d2e/c/ Ace|aec Aag|f>ged2f/g/|aec Aag|f>ged3:||
